X:1
T:Misura altri
T:Mazzocchi Domenico
T:Source : Musice sacre et morali---Roma---L.Grignani---1640. Editor : André Vierendeels (25/08/18) Notes : Original clefs : C4, F4 Text by Carlo Papino "Da tutti gli Horologi si cava moralità" 
T:Misura altri
T:Sonetto (recitativo)
T:©
T:©
T:©
T:©
T:©
T:©
C:Mazzocchi Domenico
Z:©
%%score 1 { 2 | 3 }
L:1/8
Q:1/4=90
M:4/4
K:C
V:1 treble-8 nm="Tenor" snm="T"
V:2 treble nm="MusicXML Part"
V:3 bass 
V:1
 z2 B2 B3 B | z2 B3 BBc | c3 B d2 dc | e>d eB c>B c/B/c/d/ | B4 z GGG | G2 ^F2 G2 G2 | %6
w: Mi- su- ra|al- tri il gi-|gar di quel- lo Al-|te- * * * * * * * * *|ro, che ne l'o-|blio rav- vol- ve|
 A2 AE ^F2 F2 | z2 ^FF TF3 G/A/ | B2 B2 z B2 c/d/ | B2 BG GG/G/ G2 | z GG^F A4- | A2 A_B B A2 G | %12
w: o- gni grand' o- pra,|con piu ro- te den-|ta- te, on- de la|sco- pra, del fa- sto hu- man|di- vo- ra- tor|_ se- * ve- * *|
 G8 | z2 B4 B2 | GG G3 ^FGD | D>D DE E2 E2 | e2 BA G2 G^F | ^F2 Fd e2 ed | ^c4 B4 | z2 d4 d2 | %20
w: ro.|Al- tri|à mo- star, com' ei ri-|* gi- do, e fe- ro,|tut- to con- ver- te in|pol- ve, a- re- na a-|do- pra;|Al- tri|
 c2 cB B2 B2 | z c A>G A2 A^d | e>e d>^c c3 d/e/ | ^ce ^f3 e/d/ c/B/A | %24
w: d'om- bra si ser- ve,|ac- cio di- sco- pra, ch'è|un' om- bra quan- to'a- go- *|gna hu- man _ _ _ _ _|
 ^G/^F/G/A/ B/E/F/G/ A/B/^c/d/ e/B/c/G/ | A3 A A3 ^G | A8 | z2 B2 e3 e | z2 cB c2 cG | %29
w: _ _ _ _ _ _ _ _ _ _ _ _ _ _ _ _|* pen- sie- ro.|_|Ma l'on- da,|ch'in due ve- tri ad-|
 G3 ^F G2 G2 | d2 d^c c3 B | B2 BB E2 ED | E2 E2 z B B>c | c3 c z ^c c>d | d2 ^d4 BG | %35
w: di- ta l'ho- re,|d'o- gni piu chia- ro'in-|ge- gno of- fu- sca il|van- to, ch'al Ciel mi-|su- ri il re- go-|la- * to er-|
 GA/B/ c/B/A/G/ ^F4 | E8 | z c c2 d2 de | c2 cB B2 BA | A2 A2 z2 AA | A2 Bc d c2 c/B/ | %41
w: ro- * * * * * * *|re.|Poi- che men- tre si|stil- la, ac- cen- na in-|tan- to, che la|vi- ta mor- tal tut- ta do-|
 B2 B2 z2 e2- | ee d4 c2- | cB B3 c/B/ A2- | A B/A/ G2 z A/G/ ^F2- | FG AE ^F4 | E4 G>A B/c/d/B/ | %47
w: lo re. Mi-|* su- rar non|_ la de- * * *|* ve _ _ al- * *|* tro ch'il _ pian-|to; Mi- su- rar _ _ _|
 c/A/B/c/ d/B/c/d/ eTd dc/B/ | cB TBA/G/ A2 A2 | z ABc d4- | dd e/d/e/B/ c>d e/d/c/B/ | %51
w: non _ _ _ la _ _ _ de- * * * *|* * * * * * ve|al- * * *|* tro ch'il _ _ _ pian- * * * * *|
 A/B/c/B/ A/G/^F/E/ ^D>E F/B,/C/D/ | E/^F/G/A/ B/F/G/E/ F4 | E8 |] %54
w: ||to.|
V:2
 z8 | z8 | z8 | z8 |"^BC" z8 | z8 | z8 | z8 | z8 | z8 | z8 |"^4 # 3" z8 | z8 | z8 | z8 | z8 | z8 | %17
 z8 | z8 | z8 | z8 | z8 | z8 | z8 | z8 | z8 | z8 | z8 | z8 | z8 | z8 | z8 | z8 | z8 | z8 | z8 | %36
 z8 | z8 | z8 | z8 | z8 | z8 | z8 | z8 | z8 | z8 | z8 | z8 | z8 | z8 | z8 |"^6" z8 | z8 | z8 |] %54
V:3
"^-natural" E,8 | E,8 | E,8 |"^4" E,8 |"^b" E,8 | E,8 | C,4 B,,4 | B,,4 A,,4 | G,,8 | G,,8 | %10
 G,,4 D,4 | C,4 D,4 | G,,8 | E,8 | E,8 |"^# 2 3" E,8 | E,8 | B,,4 E,4 | ^F,4 B,,4 | G,,8 | G,,8 | %21
 E,4 ^F,4 | ^G,4 A,4 | A,4 B,4 | E,4 ^C,4- | C,2 D,2 E,4 | A,,8 | E,8- | E,4 A,,4- | A,,4 B,,4 | %30
 B,,8 | B,,4 ^G,,4- | G,,8 |"^-natural""^#" A,,8 |"^7 6" B,,8 |"^4 3" B,,8 | E,,8 | A,,8 | A,,8 | %39
 D,8 | D,8 | G,,4 C,2 E,2 | ^F,2 B,2 ^G,2 A,2 | D,2 G,2 C,2 ^F,2 | B,,2 E,2 A,,2 D,2 | %45
 G,,2 C,2 B,,4 | E,,4 E,4- |"^4" E,2 D,2 C,2 B,,2 | A,,2 G,,2 ^F,2 E,2 | D,2 C,2 B,,2 A,,2 | %50
 ^G,,4 A,,4- |"^7" A,,4 B,,4 |"^6 5" B,,8 | E,,8 |] %54

